svgs/sharp-regular/download.svg

<svg xmlns="http://www.w3.org/2000/svg" viewBox="0 0 512 512"><!--! Font Awesome Pro 6.6.0 by @fontawesome - https://fontawesome.com License - https://fontawesome.com/license (Commercial License) Copyright 2024 Fonticons, Inc. --><path d="M280 24l0-24L232 0l0 24 0 270.1-95-95-17-17L86.1 216l17 17L239 369l17 17 17-17L409 233l17-17L392 182.1l-17 17-95 95L280 24zM128.8 304L48 304 0 304l0 48L0 464l0 48 48 0 416 0 48 0 0-48 0-112 0-48-48 0-80.8 0-48 48L464 352l0 112L48 464l0-112 128.8 0-48-48zM432 408a24 24 0 1 0 -48 0 24 24 0 1 0 48 0z"/></svg>

<svg xmlns="http://www.w3.org/2000/svg" viewBox="0 0 512 512"><!--! Font Awesome Pro 6.4.0 by @fontawesome - https://fontawesome.com License - https://fontawesome.com/license (Commercial License) Copyright 2023 Fonticons, Inc. --><path d="M280 24V0H232V24 294.1l-95-95-17-17L86.1 216l17 17L239 369l17 17 17-17L409 233l17-17L392 182.1l-17 17-95 95V24zM128.8 304H48 0v48V464v48H48 464h48V464 352 304H464 383.2l-48 48H464V464H48V352H176.8l-48-48zM432 408a24 24 0 1 0 -48 0 24 24 0 1 0 48 0z"/></svg>
